assets/Bison/Flat/bison_flat.svg

<svg width="32" height="32" viewBox="0 0 32 32" fill="none" xmlns="http://www.w3.org/2000/svg">
<path d="M23.17 22.0029H21.2L19.09 29.6329C19.03 29.8329 19.18 30.0329 19.39 30.0329H20.71C20.85 30.0329 20.97 29.9429 21.01 29.8029L23.17 22.0029Z" fill="#7D4533"/>
<path d="M13.03 29.6929C13.03 29.8629 12.89 30.0029 12.72 30.0029H11.34C11.17 30.0029 11.03 29.8629 11.03 29.6929V26.0229H13.03V29.6929Z" fill="#7D4533"/>
<path d="M29.4688 22L30 22.3328V26.3328C28.9 26.3328 28 25.4328 28 24.3328C28 23.5965 28.4033 22.9497 29 22.6026L29.4688 22Z" fill="#1C1C1C"/>
<path d="M8.96997 23.9728V23.0028L12 22.0028L15.03 23.0028V23.9728C15.03 25.6428 13.67 27.0028 12 27.0028C10.33 27.0028 8.96997 25.6428 8.96997 23.9728Z" fill="#1C1C1C"/>
<path d="M26.96 11.6929C28.8 12.4829 30 14.3029 30 16.3129V25.0029L30 22.3328C29.6364 22.3328 29.2946 22.4312 29 22.6026V19.2329C28.72 19.5829 28.37 19.8929 28 20.1529V24.3232L28 24.3328L28 24.3424V29.7029C28 29.8729 27.86 30.0129 27.69 30.0129H26.31C26.14 30.0129 26 29.8729 26 29.7029V26.0129H25.73C23.66 26.0129 21.99 24.3329 21.99 22.2729V22.1729C21.44 22.6829 20.69 23.0029 19.87 23.0029H11.03C9.32002 23.0029 8.06764 21.6532 8.06764 19.9432L8.06764 19.4702L6.99314 20.0088L5.37 19.0029H4.5C3.67 19.0029 3 18.3329 3 17.5029C3 17.0929 3.17 16.7129 3.44 16.4529C3.79 16.0929 4 15.6129 4 15.1129V13.0029L6.46552 12.0217L8.06763 12.6419L8.06763 10.0029H21.4C22.46 10.0029 23.5 10.2129 24.47 10.6229L26.96 11.6929Z" fill="#A56953"/>
<path d="M10.31 30.0028H11.69C11.86 30.0028 12 29.8628 12 29.6928V26.0228H10V29.6928C10 29.8628 10.14 30.0028 10.31 30.0028Z" fill="#A56953"/>
<path d="M16.16 6.50284L21.08 8.61284C21.64 8.85284 22 9.39284 22 10.0028L15.66 13.1728C14.64 13.6828 14 14.7228 14 15.8628V24.0028C14 25.6728 12.64 27.0328 10.97 27.0328C9.3 27.0328 8 25.6728 8 24.0028L8.00763 22.042L7.20002 21.2577C7.10002 21.1577 6.93002 21.1777 6.85002 21.2977L6.56002 21.7677C6.30002 22.1877 5.69002 22.1977 5.42002 21.7777L3.27053 18.4185C3.09998 18.1751 3 17.8783 3 17.5577C3 17.1477 3.16 16.7777 3.43 16.5077H4.61C5.38 16.5077 6 17.1277 6 17.8977V19.0029H8.01946L8.03116 15.9975L8 13.6128C8 13.2728 7.73 13.0028 7.39 13.0028H5.68C5.58 13.0028 5.5 13.0828 5.5 13.1828V13.6328C5.5 13.8328 5.33 14.0028 5.13 14.0028H3.64C2.73 14.0028 2 13.2728 2 12.3628V11.0028C2 9.90284 2.9 9.00284 4 9.00284H4.88C5.16 9.00284 5.42 8.87284 5.6 8.66284C5.93 8.26284 6.44 8.00284 7 8.00284C7.71 8.00284 8.33 8.41284 8.63 9.00284H8.68C9.71 7.16284 11.71 5.93284 13.99 6.00284C14.74 6.03284 15.48 6.20284 16.16 6.50284Z" fill="#6D4534"/>
<path d="M5 15.5128C5 15.7928 5.22 16.0128 5.5 16.0128C5.78 16.0128 6 15.7828 6 15.5128V14.9128C6 14.6328 5.78 14.4128 5.5 14.4128C5.22 14.4128 5 14.6328 5 14.9128V15.5128Z" fill="#1C1C1C"/>
<path d="M5 17.5029C5 17.779 4.77614 18.0029 4.5 18.0029C4.22386 18.0029 4 17.779 4 17.5029C4 17.2267 4.22386 17.0029 4.5 17.0029C4.77614 17.0029 5 17.2267 5 17.5029Z" fill="#1C1C1C"/>
<path d="M7.18 6.00285C7.01 5.99285 6.95 6.20285 7.08 6.29285C7.7 6.66285 8.09 7.36285 8.04 8.13285C7.97 9.20285 7.07 10.0228 6.01 10.0028H6C5.45 10.0028 5 10.4428 5 11.0028C5 11.5528 5.45 12.0028 6 12.0028H7C8.55 11.9828 9.86 10.7828 9.97 9.20285C10.08 7.55285 8.83 6.12285 7.18 6.00285Z" fill="#F9C23C"/>
</svg>

<svg xmlns="http://www.w3.org/2000/svg" width="32" height="32" fill="none"><path fill="#7D4533" d="M23.17 22.003H21.2l-2.11 7.63c-.06.2.09.4.3.4h1.32c.14 0 .26-.09.3-.23l2.16-7.8ZM13.03 29.693c0 .17-.14.31-.31.31h-1.38c-.17 0-.31-.14-.31-.31v-3.67h2v3.67Z"/><path fill="#1C1C1C" d="m29.469 22 .531.333v4c-1.1 0-2-.9-2-2 0-.736.403-1.383 1-1.73l.469-.603ZM8.97 23.973v-.97l3.03-1 3.03 1v.97c0 1.67-1.36 3.03-3.03 3.03-1.67 0-3.03-1.36-3.03-3.03Z"/><path fill="#A56953" d="M26.96 11.693c1.84.79 3.04 2.61 3.04 4.62v8.69-2.67c-.364 0-.705.098-1 .27v-3.37c-.28.35-.63.66-1 .92v9.55c0 .17-.14.31-.31.31h-1.38c-.17 0-.31-.14-.31-.31v-3.69h-.27a3.74 3.74 0 0 1-3.74-3.74v-.1c-.55.51-1.3.83-2.12.83h-8.84c-1.71 0-2.962-1.35-2.962-3.06v-.473l-1.075.539-1.623-1.006H4.5c-.83 0-1.5-.67-1.5-1.5 0-.41.17-.79.44-1.05.35-.36.56-.84.56-1.34v-2.11l2.466-.981 1.602.62v-2.64H21.4c1.06 0 2.1.21 3.07.62l2.49 1.07ZM10.31 30.003h1.38c.17 0 .31-.14.31-.31v-3.67h-2v3.67c0 .17.14.31.31.31Z"/><path fill="#6D4534" d="m16.16 6.503 4.92 2.11c.56.24.92.78.92 1.39l-6.34 3.17a3.003 3.003 0 0 0-1.66 2.69v8.14c0 1.67-1.36 3.03-3.03 3.03-1.67 0-2.97-1.36-2.97-3.03l.008-1.961-.808-.784c-.1-.1-.27-.08-.35.04l-.29.47c-.26.42-.87.43-1.14.01l-2.15-3.36c-.17-.243-.27-.54-.27-.86 0-.41.16-.78.43-1.05h1.18c.77 0 1.39.62 1.39 1.39v1.105h2.02l.011-3.005L8 13.613c0-.34-.27-.61-.61-.61H5.68c-.1 0-.18.08-.18.18v.45c0 .2-.17.37-.37.37H3.64c-.91 0-1.64-.73-1.64-1.64v-1.36c0-1.1.9-2 2-2h.88c.28 0 .54-.13.72-.34a1.822 1.822 0 0 1 3.03.34h.05a5.869 5.869 0 0 1 5.31-3c.75.03 1.49.2 2.17.5Z"/><path fill="#1C1C1C" d="M5 15.513c0 .28.22.5.5.5s.5-.23.5-.5v-.6c0-.28-.22-.5-.5-.5s-.5.22-.5.5v.6ZM5 17.503a.5.5 0 1 1-1 0 .5.5 0 0 1 1 0Z"/><path fill="#F9C23C" d="M7.18 6.003c-.17-.01-.23.2-.1.29a2 2 0 0 1-1.07 3.71H6c-.55 0-1 .44-1 1 0 .55.45 1 1 1h1a3.014 3.014 0 0 0 2.97-2.8 3.014 3.014 0 0 0-2.79-3.2Z"/></svg>
